build/img/Logo.svg

<svg width="131" height="29" viewBox="0 0 131 29" fill="none" xmlns="http://www.w3.org/2000/svg">
<path d="M54.738 15.6531C54.742 16.2351 54.5811 16.8064 54.274 17.3009C53.952 17.8229 53.485 18.2398 52.93 18.5008C52.2608 18.8175 51.526 18.971 50.786 18.9487C49.6668 18.9944 48.5641 18.6681 47.65 18.0208C47.2456 17.7176 46.9147 17.3271 46.682 16.8784C46.4494 16.4297 46.3208 15.9343 46.306 15.4291H49.218C49.2394 15.8085 49.3987 16.1669 49.666 16.437C49.9415 16.6858 50.303 16.8178 50.674 16.805C50.9784 16.822 51.2773 16.7186 51.506 16.517C51.6073 16.4173 51.6863 16.2974 51.738 16.1651C51.7897 16.0327 51.8129 15.891 51.806 15.7491C51.8095 15.6158 51.7858 15.4832 51.7362 15.3594C51.6867 15.2356 51.6125 15.1232 51.518 15.0291C51.3236 14.8281 51.0893 14.67 50.83 14.5652C50.5527 14.4372 50.1687 14.2879 49.678 14.1172C49.0779 13.9192 48.4902 13.6854 47.918 13.4173C47.4553 13.17 47.0557 12.8197 46.75 12.3934C46.4104 11.8653 46.2427 11.2449 46.27 10.6176C46.2551 9.99724 46.4341 9.38766 46.782 8.8738C47.1346 8.37355 47.6232 7.98489 48.19 7.75392C48.8479 7.47706 49.5564 7.34083 50.27 7.35396C51.3417 7.29672 52.3998 7.61496 53.262 8.25387C53.6334 8.55325 53.9377 8.92722 54.1555 9.35162C54.3732 9.77601 54.4994 10.2414 54.526 10.7176H51.566C51.5323 10.3853 51.3855 10.0746 51.15 9.8377C51.0352 9.72302 50.8974 9.63383 50.7458 9.57594C50.5942 9.51805 50.4321 9.49277 50.27 9.50173C49.9863 9.48972 49.7079 9.58063 49.486 9.75771C49.3861 9.85446 49.3085 9.9719 49.2588 10.1018C49.209 10.2317 49.1883 10.3709 49.198 10.5096C49.193 10.7631 49.2845 11.009 49.454 11.1976C49.648 11.3875 49.876 11.5395 50.126 11.6455C50.3927 11.7628 50.7767 11.9121 51.278 12.0935C51.8889 12.2903 52.4829 12.5364 53.054 12.8294C53.5264 13.076 53.9325 13.4326 54.238 13.8693C54.5887 14.3962 54.7637 15.0206 54.738 15.6531V15.6531ZM58.315 9.90969L60.459 15.3811L62.459 9.90969H65.483L59.915 23.0943H56.907L59.007 18.5028L55.263 9.91169L58.315 9.90969ZM72.056 9.8097C72.5122 9.78906 72.9673 9.87065 73.3879 10.0485C73.8085 10.2263 74.184 10.4959 74.487 10.8376C75.1331 11.6288 75.4588 12.6335 75.4 13.6533V18.8367H72.666V13.9753C72.6815 13.7231 72.647 13.4704 72.5647 13.2315C72.4823 12.9927 72.3536 12.7724 72.186 12.5834C72.0278 12.4124 71.8342 12.2779 71.6186 12.1895C71.403 12.1011 71.1708 12.0608 70.938 12.0715C70.6918 12.06 70.446 12.1011 70.217 12.1922C69.988 12.2832 69.7811 12.4221 69.61 12.5994C69.2667 13.021 69.0953 13.5567 69.13 14.0992V18.8387H66.391V9.91169H69.127V11.5395C69.3753 11.0173 69.7713 10.5792 70.266 10.2796C70.8081 9.9628 71.4273 9.80221 72.055 9.8157L72.056 9.8097ZM82.256 16.481V18.8367H81.028C80.1454 18.8901 79.274 18.6167 78.58 18.0688C78.2632 17.7242 78.0225 17.3168 77.8736 16.873C77.7247 16.4292 77.671 15.959 77.716 15.4931V12.2134H76.516V9.91369H77.716V7.71392H80.452V9.90569H82.244V12.2054H80.452V15.5331C80.4242 15.796 80.4987 16.0595 80.66 16.269C80.8712 16.427 81.1334 16.5011 81.396 16.477L82.256 16.481ZM89.456 9.8097C89.9134 9.788 90.3698 9.86907 90.7917 10.047C91.2136 10.2248 91.5903 10.495 91.894 10.8376C92.5393 11.6292 92.8647 12.6337 92.806 13.6533V18.8367H90.066V13.9753C90.0815 13.7231 90.047 13.4704 89.9647 13.2315C89.8823 12.9927 89.7536 12.7724 89.586 12.5834C89.4278 12.4124 89.2342 12.2779 89.0186 12.1895C88.803 12.1011 88.5708 12.0608 88.338 12.0715C88.0918 12.06 87.846 12.1011 87.617 12.1922C87.388 12.2832 87.1811 12.4221 87.01 12.5994C86.6667 13.021 86.4953 13.5567 86.53 14.0992V18.8387H83.8V7H86.536V11.5395C86.7828 11.0185 87.1762 10.5807 87.668 10.2796C88.2133 9.96082 88.8366 9.80017 89.468 9.8157L89.456 9.8097ZM103.085 14.1292C103.082 14.3766 103.056 14.623 103.005 14.8652H96.813C96.7927 15.3978 96.9757 15.9183 97.325 16.321C97.6481 16.614 98.0731 16.769 98.509 16.753C98.869 16.7678 99.2237 16.6622 99.517 16.453C99.7777 16.26 99.9641 15.9832 100.045 15.6691H102.945C102.833 16.2903 102.569 16.8741 102.177 17.3689C101.773 17.8675 101.26 18.267 100.677 18.5368C100.038 18.8208 99.3444 18.9627 98.645 18.9527C97.8333 18.9677 97.0306 18.7808 96.309 18.4088C95.6387 18.0382 95.0889 17.4829 94.725 16.809C94.3276 16.0612 94.1293 15.2238 94.149 14.3772C94.1271 13.5323 94.3198 12.6957 94.709 11.9455C95.0739 11.2709 95.6307 10.7197 96.309 10.3616C97.0274 9.97946 97.8314 9.78674 98.645 9.8017C99.4569 9.78469 100.26 9.97171 100.981 10.3456C101.638 10.6936 102.178 11.2279 102.533 11.8815C102.915 12.5709 103.107 13.3493 103.09 14.1372L103.085 14.1292ZM100.317 13.7133C100.341 13.4726 100.311 13.2294 100.228 13.0022C100.145 12.775 100.011 12.5696 99.837 12.4014C99.5112 12.1005 99.0803 11.9397 98.637 11.9535C98.179 11.9377 97.7324 12.098 97.389 12.4014C97.0371 12.7481 96.8359 13.2194 96.829 13.7133H100.317ZM107.759 9.7937C108.732 9.74358 109.69 10.0445 110.459 10.6416C111.143 11.2085 111.598 12.0044 111.739 12.8814H109.179C109.121 12.5445 108.938 12.2419 108.667 12.0335C108.391 11.8133 108.044 11.6997 107.691 11.7135C107.44 11.6966 107.192 11.7704 106.991 11.9215C106.91 11.9895 106.846 12.0756 106.804 12.1729C106.763 12.2701 106.744 12.3758 106.751 12.4814C106.751 12.617 106.792 12.7494 106.869 12.8609C106.947 12.9724 107.056 13.0577 107.183 13.1053C107.632 13.2902 108.098 13.4295 108.575 13.5213C109.146 13.6492 109.707 13.8163 110.255 14.0213C110.697 14.1842 111.089 14.46 111.391 14.8212C111.728 15.2461 111.899 15.7793 111.871 16.321C111.879 16.8069 111.734 17.2829 111.455 17.6809C111.151 18.0972 110.735 18.4189 110.255 18.6088C109.666 18.8456 109.034 18.9599 108.399 18.9447C107.371 18.9971 106.354 18.7166 105.499 18.1448C105.135 17.8725 104.83 17.5295 104.602 17.1364C104.373 16.7433 104.227 16.3081 104.171 15.8571H106.811C106.823 16.0297 106.872 16.1976 106.955 16.3495C107.038 16.5014 107.152 16.6336 107.291 16.737C107.618 16.9489 108.002 17.0538 108.391 17.0369C108.642 17.0539 108.89 16.98 109.091 16.829C109.17 16.7558 109.232 16.6665 109.274 16.5671C109.315 16.4677 109.335 16.3606 109.331 16.253C109.336 16.1101 109.296 15.9693 109.215 15.8512C109.134 15.7332 109.018 15.6441 108.883 15.5971C108.424 15.405 107.947 15.2603 107.459 15.1651C106.905 15.056 106.359 14.9063 105.827 14.7172C105.402 14.5564 105.024 14.2925 104.727 13.9493C104.4 13.5308 104.235 13.008 104.263 12.4774C104.252 12.1058 104.329 11.7369 104.488 11.4005C104.646 11.0642 104.882 10.7699 105.175 10.5416C105.924 9.99698 106.842 9.73361 107.766 9.7977L107.759 9.7937ZM115.45 9.90569L117.594 15.3771L119.594 9.90569H122.618L117.05 23.0903H114.042L116.142 18.4988L112.4 9.90769L115.45 9.90569ZM126.775 9.7937C127.748 9.74358 128.706 10.0445 129.475 10.6416C130.159 11.2085 130.614 12.0044 130.755 12.8814H128.195C128.136 12.5447 127.954 12.2422 127.683 12.0335C127.407 11.8133 127.06 11.6997 126.707 11.7135C126.456 11.6966 126.208 11.7704 126.007 11.9215C125.926 11.9895 125.862 12.0756 125.82 12.1729C125.779 12.2701 125.76 12.3758 125.767 12.4814C125.767 12.617 125.808 12.7494 125.885 12.8609C125.963 12.9724 126.072 13.0577 126.199 13.1053C126.648 13.2902 127.114 13.4295 127.591 13.5213C128.162 13.6492 128.723 13.8163 129.271 14.0213C129.713 14.1844 130.104 14.4602 130.407 14.8212C130.744 15.2463 130.914 15.7794 130.887 16.321C130.895 16.8068 130.749 17.2826 130.471 17.6809C130.166 18.097 129.75 18.4187 129.271 18.6088C128.682 18.8455 128.05 18.9598 127.415 18.9447C126.387 18.9971 125.37 18.7166 124.515 18.1448C124.151 17.8725 123.846 17.5295 123.618 17.1364C123.389 16.7433 123.243 16.3081 123.187 15.8571H125.827C125.839 16.0297 125.888 16.1976 125.971 16.3495C126.054 16.5014 126.168 16.6336 126.307 16.737C126.634 16.9489 127.018 17.0538 127.407 17.0369C127.658 17.0539 127.906 16.98 128.107 16.829C128.186 16.7558 128.248 16.6665 128.29 16.5671C128.331 16.4677 128.351 16.3606 128.347 16.253C128.352 16.1101 128.312 15.9693 128.231 15.8512C128.15 15.7332 128.034 15.6441 127.899 15.5971C127.44 15.405 126.963 15.2603 126.475 15.1651C125.921 15.056 125.375 14.9063 124.843 14.7172C124.418 14.5571 124.04 14.2931 123.743 13.9493C123.416 13.5308 123.251 13.008 123.279 12.4774C123.268 12.1058 123.345 11.7369 123.504 11.4005C123.662 11.0642 123.898 10.7699 124.191 10.5416C124.94 9.99775 125.856 9.73443 126.78 9.7977L126.775 9.7937Z" fill="white"/>
<path d="M23.2 28.13C22.5516 28.1295 21.9299 27.8718 21.4714 27.4134C21.0128 26.9551 20.7548 26.3336 20.754 25.6853V4.94247C20.7579 4.82887 20.7389 4.71565 20.6981 4.60955C20.6573 4.50345 20.5956 4.40664 20.5166 4.3249C20.4376 4.24315 20.343 4.17815 20.2383 4.13375C20.1337 4.08935 20.0212 4.06647 19.9075 4.06647C19.7938 4.06647 19.6813 4.08935 19.5767 4.13375C19.472 4.17815 19.3774 4.24315 19.2984 4.3249C19.2194 4.40664 19.1577 4.50345 19.1169 4.60955C19.0761 4.71565 19.0571 4.82887 19.061 4.94247V16.5092C19.061 17.1579 18.8033 17.78 18.3446 18.2386C17.8859 18.6973 17.2637 18.955 16.615 18.955C15.9663 18.955 15.3441 18.6973 14.8854 18.2386C14.4267 17.78 14.169 17.1579 14.169 16.5092V2.44574C14.169 2.22139 14.0799 2.00623 13.9212 1.84759C13.7626 1.68895 13.5474 1.59983 13.323 1.59983C13.0986 1.59983 12.8834 1.68895 12.7248 1.84759C12.5661 2.00623 12.477 2.22139 12.477 2.44574V22.3686C12.477 23.0173 12.2193 23.6393 11.7606 24.098C11.3019 24.5567 10.6797 24.8144 10.031 24.8144C9.38228 24.8144 8.76013 24.5567 8.30142 24.098C7.8427 23.6393 7.585 23.0173 7.585 22.3686V9.06903C7.57746 8.84959 7.48497 8.64165 7.32704 8.48907C7.16912 8.3365 6.9581 8.25122 6.7385 8.25122C6.5189 8.25122 6.30788 8.3365 6.14996 8.48907C5.99203 8.64165 5.89954 8.84959 5.892 9.06903V12.3327C5.892 12.5448 5.80771 12.7483 5.65769 12.8983C5.50766 13.0483 5.30417 13.1326 5.092 13.1326H0.8C0.587827 13.1326 0.384344 13.0483 0.234315 12.8983C0.0842855 12.7483 0 12.5448 0 12.3327C0 12.1205 0.0842855 11.9171 0.234315 11.7671C0.384344 11.617 0.587827 11.5328 0.8 11.5328H4.3V9.06903C4.3 8.42038 4.5577 7.7983 5.01642 7.33963C5.47513 6.88097 6.09728 6.62329 6.746 6.62329C7.39472 6.62329 8.01687 6.88097 8.47558 7.33963C8.9343 7.7983 9.192 8.42038 9.192 9.06903V22.3676C9.19954 22.5871 9.29203 22.795 9.44996 22.9476C9.60788 23.1001 9.8189 23.1854 10.0385 23.1854C10.2581 23.1854 10.4691 23.1001 10.627 22.9476C10.785 22.795 10.8775 22.5871 10.885 22.3676V2.44574C10.885 1.79709 11.1427 1.17501 11.6014 0.71634C12.0601 0.257675 12.6823 0 13.331 0C13.9797 0 14.6019 0.257675 15.0606 0.71634C15.5193 1.17501 15.777 1.79709 15.777 2.44574V16.5092C15.7731 16.6228 15.7921 16.7361 15.8329 16.8422C15.8737 16.9483 15.9354 17.0451 16.0144 17.1268C16.0934 17.2086 16.188 17.2736 16.2927 17.318C16.3973 17.3624 16.5098 17.3852 16.6235 17.3852C16.7372 17.3852 16.8497 17.3624 16.9543 17.318C17.059 17.2736 17.1536 17.2086 17.2326 17.1268C17.3116 17.0451 17.3733 16.9483 17.4141 16.8422C17.4549 16.7361 17.4739 16.6228 17.47 16.5092V4.94247C17.47 4.29382 17.7277 3.67174 18.1864 3.21307C18.6451 2.75441 19.2673 2.49673 19.916 2.49673C20.5647 2.49673 21.1869 2.75441 21.6456 3.21307C22.1043 3.67174 22.362 4.29382 22.362 4.94247V25.6853C22.362 25.9096 22.4511 26.1248 22.6098 26.2834C22.7684 26.442 22.9836 26.5312 23.208 26.5312C23.4324 26.5312 23.6476 26.442 23.8062 26.2834C23.9649 26.1248 24.054 25.9096 24.054 25.6853V2.44574C24.054 1.79709 24.3117 1.17501 24.7704 0.71634C25.2291 0.257675 25.8513 0 26.5 0C27.1487 0 27.7709 0.257675 28.2296 0.71634C28.6883 1.17501 28.946 1.79709 28.946 2.44574V18.998C28.9421 19.1116 28.9611 19.2248 29.0019 19.3309C29.0427 19.437 29.1044 19.5338 29.1834 19.6155C29.2624 19.6973 29.357 19.7623 29.4617 19.8067C29.5663 19.8511 29.6788 19.874 29.7925 19.874C29.9062 19.874 30.0187 19.8511 30.1233 19.8067C30.228 19.7623 30.3226 19.6973 30.4016 19.6155C30.4806 19.5338 30.5423 19.437 30.5831 19.3309C30.6239 19.2248 30.6429 19.1116 30.639 18.998V12.3327C30.639 12.1205 30.7233 11.9171 30.8733 11.7671C31.0233 11.617 31.2268 11.5328 31.439 11.5328H35.668C35.7731 11.5328 35.8771 11.5535 35.9741 11.5937C36.0712 11.6339 36.1594 11.6928 36.2337 11.7671C36.308 11.8413 36.3669 11.9295 36.4071 12.0266C36.4473 12.1236 36.468 12.2276 36.468 12.3327C36.468 12.4377 36.4473 12.5417 36.4071 12.6388C36.3669 12.7358 36.308 12.824 36.2337 12.8983C36.1594 12.9726 36.0712 13.0315 35.9741 13.0717C35.8771 13.1119 35.7731 13.1326 35.668 13.1326H32.234V18.998C32.234 19.6466 31.9763 20.2687 31.5176 20.7274C31.0589 21.186 30.4367 21.4437 29.788 21.4437C29.1393 21.4437 28.5171 21.186 28.0584 20.7274C27.5997 20.2687 27.342 19.6466 27.342 18.998V2.44574C27.342 2.22126 27.2528 2.00597 27.0941 1.84724C26.9353 1.6885 26.72 1.59933 26.4955 1.59933C26.271 1.59933 26.0557 1.6885 25.8969 1.84724C25.7382 2.00597 25.649 2.22126 25.649 2.44574V25.6853C25.6482 26.3341 25.3898 26.9561 24.9306 27.4145C24.4714 27.8729 23.8489 28.1303 23.2 28.13Z" fill="url(#paint0_linear_1_9)"/>
<defs>
<linearGradient id="paint0_linear_1_9" x1="36.468" y1="28.13" x2="9.25995" y2="-7.14277" gradientUnits="userSpaceOnUse">
<stop stop-color="#00F1D7"/>
<stop offset="1" stop-color="#00CCFA"/>
</linearGradient>
</defs>
</svg>

<svg xmlns="http://www.w3.org/2000/svg" width="131" height="29" fill="none" viewBox="0 0 131 29">
  <path fill="#fff" d="M54.738 15.653a3.083 3.083 0 01-.464 1.648 3.158 3.158 0 01-1.344 1.2c-.67.316-1.404.47-2.144.448a5.069 5.069 0 01-3.136-.928 3.363 3.363 0 01-1.344-2.592h2.912c.021.38.18.738.448 1.008.276.249.637.38 1.008.368a1.16 1.16 0 00.832-.288 1.009 1.009 0 00.3-.768.979.979 0 00-.288-.72 2 2 0 00-.688-.464 13.34 13.34 0 00-1.152-.448c-.6-.198-1.188-.432-1.76-.7a3.422 3.422 0 01-1.168-1.024 3.039 3.039 0 01-.48-1.775c-.015-.62.164-1.23.512-1.744a3.2 3.2 0 011.408-1.12 5.12 5.12 0 012.08-.4 4.612 4.612 0 012.992.9 3.409 3.409 0 011.264 2.464h-2.96a1.456 1.456 0 00-.416-.88 1.155 1.155 0 00-.88-.336 1.177 1.177 0 00-.784.256.953.953 0 00-.288.752 1 1 0 00.256.688c.194.19.422.341.672.447.267.118.65.267 1.152.449.61.196 1.205.442 1.776.735a3.32 3.32 0 011.184 1.04 3 3 0 01.5 1.784zm3.577-5.743l2.144 5.471 2-5.471h3.024l-5.568 13.184h-3.008l2.1-4.591-3.744-8.591 3.052-.002zm13.741-.1a3.064 3.064 0 012.431 1.028 4.08 4.08 0 01.913 2.815v5.184h-2.734v-4.862a1.922 1.922 0 00-.48-1.392 1.6 1.6 0 00-1.248-.511 1.732 1.732 0 00-1.328.527 2.157 2.157 0 00-.48 1.5v4.74h-2.739V9.912h2.736v1.627c.248-.522.644-.96 1.139-1.26a3.4 3.4 0 011.789-.463l.001-.006zm10.2 6.671v2.356h-1.228a3.6 3.6 0 01-2.448-.768 3.334 3.334 0 01-.864-2.576v-3.28h-1.2v-2.3h1.2v-2.2h2.736v2.193h1.792v2.3h-1.792v3.327c-.028.263.047.527.208.736.211.158.473.232.736.208l.86.004zm7.2-6.671a3.064 3.064 0 012.438 1.028c.645.791.97 1.796.912 2.815v5.184h-2.74v-4.862a1.922 1.922 0 00-.48-1.392 1.6 1.6 0 00-1.248-.511 1.732 1.732 0 00-1.328.527 2.157 2.157 0 00-.48 1.5v4.74H83.8V7h2.736v4.54c.247-.521.64-.96 1.132-1.26a3.401 3.401 0 011.8-.464l-.012-.006zm13.629 4.32a3.793 3.793 0 01-.08.735h-6.192a2.1 2.1 0 00.512 1.456c.323.293.748.448 1.184.432.36.015.715-.09 1.008-.3.26-.193.447-.47.528-.784h2.9a3.833 3.833 0 01-.768 1.7 4.201 4.201 0 01-1.5 1.168 4.834 4.834 0 01-2.032.416 4.9 4.9 0 01-2.336-.544 4 4 0 01-1.584-1.6 4.937 4.937 0 01-.576-2.432 5 5 0 01.56-2.432 3.877 3.877 0 011.6-1.583 4.787 4.787 0 012.336-.56 4.853 4.853 0 012.336.544 3.78 3.78 0 011.552 1.536c.382.689.574 1.467.557 2.255l-.005-.008zm-2.768-.417a1.608 1.608 0 00-.48-1.312 1.691 1.691 0 00-1.2-.447 1.792 1.792 0 00-1.248.447 1.878 1.878 0 00-.56 1.312h3.488zm7.442-3.92c.973-.05 1.931.252 2.7.849a3.665 3.665 0 011.28 2.24h-2.56a1.361 1.361 0 00-.512-.848 1.474 1.474 0 00-.976-.32 1.047 1.047 0 00-.7.207.68.68 0 00-.24.56.668.668 0 00.432.624c.449.185.915.325 1.392.416.571.128 1.132.295 1.68.5.442.163.834.439 1.136.8.337.425.508.958.48 1.5.008.486-.137.962-.416 1.36-.304.416-.72.738-1.2.928a4.677 4.677 0 01-1.856.336 4.779 4.779 0 01-2.9-.8 3.372 3.372 0 01-1.328-2.288h2.64a1.2 1.2 0 00.48.88c.327.212.711.317 1.1.3.251.017.499-.057.7-.208a.759.759 0 00.24-.576.668.668 0 00-.448-.656 7.317 7.317 0 00-1.424-.432c-.554-.109-1.1-.259-1.632-.448a2.734 2.734 0 01-1.1-.768 2.202 2.202 0 01-.464-1.472 2.365 2.365 0 01.912-1.936 3.943 3.943 0 012.591-.743l-.007-.004zm7.691.113l2.144 5.471 2-5.471h3.024L117.05 23.09h-3.008l2.1-4.591-3.742-8.591 3.05-.002zm11.325-.112c.973-.05 1.931.25 2.7.848a3.665 3.665 0 011.28 2.24h-2.56a1.367 1.367 0 00-.512-.848 1.474 1.474 0 00-.976-.32 1.047 1.047 0 00-.7.207.68.68 0 00-.24.56.668.668 0 00.432.624c.449.185.915.325 1.392.416.571.128 1.132.295 1.68.5.442.163.833.44 1.136.8.337.425.507.958.48 1.5a2.31 2.31 0 01-.416 1.36 2.743 2.743 0 01-1.2.928 4.68 4.68 0 01-1.856.336 4.779 4.779 0 01-2.9-.8 3.372 3.372 0 01-1.328-2.288h2.64a1.2 1.2 0 00.48.88c.327.212.711.317 1.1.3.251.017.499-.057.7-.208a.759.759 0 00.24-.576.668.668 0 00-.448-.656 7.317 7.317 0 00-1.424-.432c-.554-.109-1.1-.259-1.632-.448a2.721 2.721 0 01-1.1-.768 2.202 2.202 0 01-.464-1.472 2.365 2.365 0 01.912-1.936 3.947 3.947 0 012.589-.743l-.005-.004z"/>
  <path fill="url(#paint0_linear_148_10777)" d="M23.2 28.13a2.448 2.448 0 01-2.446-2.445V4.942a.847.847 0 10-1.693 0V16.51a2.445 2.445 0 11-4.892 0V2.446a.846.846 0 10-1.692 0v19.923a2.446 2.446 0 01-4.892 0v-13.3a.847.847 0 00-1.693 0v3.264a.8.8 0 01-.8.8H.8a.8.8 0 010-1.6h3.5V9.069a2.446 2.446 0 014.892 0v13.299a.847.847 0 001.693 0V2.446a2.446 2.446 0 014.892 0v14.063a.847.847 0 101.693 0V4.942a2.446 2.446 0 014.892 0v20.743a.846.846 0 101.692 0V2.445a2.446 2.446 0 014.892 0v16.553a.847.847 0 101.693 0v-6.665a.8.8 0 01.8-.8h4.229a.8.8 0 110 1.6h-3.434v5.865a2.446 2.446 0 01-4.892 0V2.446a.847.847 0 00-1.693 0v23.24A2.448 2.448 0 0123.2 28.13z"/>
  <defs>
    <linearGradient id="paint0_linear_148_10777" x1="36.468" x2="9.26" y1="28.13" y2="-7.143" gradientUnits="userSpaceOnUse">
      <stop stop-color="#00F1D7"/>
      <stop offset="1" stop-color="#00CCFA"/>
    </linearGradient>
  </defs>
</svg>
